assets/offering/overfall.svg

<svg width="48" height="48" viewBox="0 0 48 48" fill="none" xmlns="http://www.w3.org/2000/svg">
<mask id="mask0" mask-type="alpha" maskUnits="userSpaceOnUse" x="0" y="0" width="48" height="48">
<path fill-rule="evenodd" clip-rule="evenodd" d="M0 0H47.9999V48H0V0Z" fill="white"/>
</mask>
<g mask="url(#mask0)">
<path fill-rule="evenodd" clip-rule="evenodd" d="M48 24C48 37.255 37.255 48 24 48C10.745 48 0 37.255 0 24C0 10.745 10.745 0 24 0C37.255 0 48 10.745 48 24" fill="#651EFF"/>
</g>
<path fill-rule="evenodd" clip-rule="evenodd" d="M31.5 33.6968H30.5V24.6968C30.5 21.1128 27.584 18.1968 24 18.1968C20.416 18.1968 17.5 21.1128 17.5 24.6968V33.6968H16.5V24.6968C16.5 20.5608 19.864 17.1968 24 17.1968C28.136 17.1968 31.5 20.5608 31.5 24.6968V33.6968Z" fill="white"/>
<mask id="mask1" mask-type="alpha" maskUnits="userSpaceOnUse" x="0" y="0" width="48" height="48">
<path fill-rule="evenodd" clip-rule="evenodd" d="M0 48H48V0H0V48Z" fill="white"/>
</mask>
<g mask="url(#mask1)">
<path fill-rule="evenodd" clip-rule="evenodd" d="M14 35.1968H34V34.1968H14V35.1968Z" fill="white"/>
<path fill-rule="evenodd" clip-rule="evenodd" d="M21.1946 24.5288H20.1946C20.1946 22.5428 21.7916 20.9268 23.7536 20.9268V21.9268C22.3416 21.9268 21.1946 23.0938 21.1946 24.5288" fill="white"/>
<path fill-rule="evenodd" clip-rule="evenodd" d="M23.5 13.7052H24.5V9.30322H23.5V13.7052Z" fill="white"/>
<path fill-rule="evenodd" clip-rule="evenodd" d="M8.55591 24.6968H12.9579V23.6968H8.55591V24.6968Z" fill="white"/>
<path fill-rule="evenodd" clip-rule="evenodd" d="M35.042 24.6968H39.443V23.6968H35.042V24.6968Z" fill="white"/>
<path fill-rule="evenodd" clip-rule="evenodd" d="M16.2277 17.132L13.1157 14.019L13.8227 13.312L16.9347 16.425L16.2277 17.132Z" fill="white"/>
<path fill-rule="evenodd" clip-rule="evenodd" d="M31.7727 17.132L31.0657 16.425L34.1777 13.312L34.8847 14.019L31.7727 17.132Z" fill="white"/>
</g>
</svg>

<svg width="48" height="48" viewBox="0 0 48 48" fill="none" xmlns="http://www.w3.org/2000/svg"><mask id="a" maskUnits="userSpaceOnUse" x="0" y="0" width="48" height="48"><path fill-rule="evenodd" clip-rule="evenodd" d="M0 0h48v48H0V0z" fill="#fff"/></mask><g mask="url(#a)"><path fill-rule="evenodd" clip-rule="evenodd" d="M48 24c0 13.255-10.745 24-24 24S0 37.255 0 24 10.745 0 24 0s24 10.745 24 24" fill="#651EFF"/></g><path fill-rule="evenodd" clip-rule="evenodd" d="M31.5 33.697h-1v-9c0-3.584-2.916-6.5-6.5-6.5a6.508 6.508 0 00-6.5 6.5v9h-1v-9c0-4.136 3.364-7.5 7.5-7.5s7.5 3.364 7.5 7.5v9z" fill="#fff"/><mask id="b" maskUnits="userSpaceOnUse" x="0" y="0" width="48" height="48"><path fill-rule="evenodd" clip-rule="evenodd" d="M0 48h48V0H0v48z" fill="#fff"/></mask><g mask="url(#b)" fill-rule="evenodd" clip-rule="evenodd" fill="#fff"><path d="M14 35.197h20v-1H14v1zM21.195 24.529h-1c0-1.986 1.597-3.602 3.559-3.602v1c-1.412 0-2.56 1.167-2.56 2.602M23.5 13.705h1V9.303h-1v4.402zM8.556 24.697h4.402v-1H8.556v1zM35.042 24.697h4.401v-1h-4.401v1zM16.228 17.132l-3.112-3.113.707-.707 3.112 3.113-.707.707zM31.773 17.132l-.707-.707 3.112-3.113.707.707-3.112 3.113z"/></g></svg>
